icons/desktop/16/svg/shield-slash-16.svg

<svg width="16" height="16" viewBox="0 0 16 16" fill="none" xmlns="http://www.w3.org/2000/svg">
<path fill-rule="evenodd" clip-rule="evenodd" d="M0.719365 1.21955C1.01218 0.926736 1.487 0.926899 1.77991 1.21955L3.60608 3.04572C3.60726 3.04517 3.60881 3.04529 3.60999 3.04474L4.73792 4.17267C4.73675 4.17326 4.73518 4.17307 4.73401 4.17365L11.8424 11.282L11.8444 11.2801L12.9157 12.3504C12.915 12.3513 12.9134 12.3515 12.9127 12.3524L15.2799 14.7195C15.5728 15.0124 15.5728 15.4872 15.2799 15.7801C14.987 16.0729 14.5122 16.0729 14.2194 15.7801L11.9518 13.5125C11.1793 14.347 10.3085 15.0747 9.38147 15.6238C8.95861 15.8748 8.48234 15.9997 8.0055 15.9998C7.52155 15.9998 7.03612 15.871 6.60315 15.6131C5.11415 14.7281 3.73904 13.3998 2.73304 11.8758C2.18814 11.0499 1.80442 10.0471 1.59241 8.89533L1.14612 6.47052C0.953039 5.42255 1.3843 4.3699 2.19983 3.76056L0.719365 2.28009C0.426756 1.98722 0.426675 1.51237 0.719365 1.21955ZM3.28675 4.84748C2.79592 5.08163 2.51743 5.64008 2.62073 6.20002L3.06702 8.62384C3.242 9.57672 3.5511 10.3936 3.98401 11.0506C4.86798 12.3886 6.06986 13.553 7.3678 14.325C7.75678 14.556 8.23488 14.5598 8.61487 14.3338C9.43584 13.8475 10.2105 13.2009 10.8951 12.4559L3.28675 4.84748Z" fill="black"/>
<path d="M6.43128 1.47443C7.38621 0.839482 8.60854 0.84327 9.54651 1.48713C10.1144 1.87605 10.6999 2.23553 11.2867 2.55549C11.9257 2.90449 12.5782 3.2181 13.2252 3.4881C14.404 3.97919 15.0881 5.25346 14.8532 6.51935L14.4088 8.90412C14.2448 9.79004 13.9769 10.5851 13.6129 11.282L12.483 10.1522C12.677 9.69217 12.8322 9.1877 12.9352 8.6297L13.3785 6.24396C13.4855 5.66998 13.18 5.09291 12.65 4.87189C11.953 4.58289 11.253 4.24589 10.569 3.87189C9.93797 3.52889 9.30886 3.14148 8.69886 2.72248C8.48393 2.57461 8.23487 2.50081 7.98499 2.5008C7.73516 2.5008 7.48518 2.5747 7.26429 2.7215C6.82029 3.0175 6.36019 3.29535 5.89319 3.56134L4.7887 2.45685C5.3497 2.15085 5.90328 1.82743 6.43128 1.47443Z" fill="black"/>
</svg>

<!-- This Source Code Form is subject to the terms of the Mozilla Public
   - License, v. 2.0. If a copy of the MPL was not distributed with this
   - file, You can obtain one at http://mozilla.org/MPL/2.0/. -->
<svg xmlns="http://www.w3.org/2000/svg" width="16" height="16" fill="context-fill" fill-opacity="context-fill-opacity" viewBox="0 0 16 16">
    <path fill-rule="evenodd" d="M.72 1.22a.75.75 0 0 1 1.06 0l1.826 1.826.004-.001 1.128 1.128h-.004l7.108 7.109.002-.002 1.072 1.07-.003.002 2.367 2.367a.75.75 0 1 1-1.06 1.061l-2.268-2.267c-.773.834-1.643 1.562-2.57 2.11-.423.252-.9.377-1.376.377a2.74 2.74 0 0 1-1.403-.387c-1.489-.885-2.864-2.213-3.87-3.737-.545-.826-.929-1.829-1.14-2.98L1.145 6.47A2.77 2.77 0 0 1 2.2 3.76L.72 2.28a.75.75 0 0 1 0-1.061m2.567 3.627c-.491.235-.77.793-.666 1.353l.446 2.424c.175.953.484 1.77.917 2.427.884 1.338 2.086 2.502 3.384 3.274a1.22 1.22 0 0 0 1.247.009 10.2 10.2 0 0 0 2.28-1.878z" clip-rule="evenodd" />
    <path d="M6.431 1.474a2.77 2.77 0 0 1 3.116.013 20.673 20.673 0 0 0 3.679 2.001 2.75 2.75 0 0 1 1.627 3.031l-.444 2.385a8.4 8.4 0 0 1-.796 2.378l-1.13-1.13c.194-.46.35-.964.452-1.522l.444-2.386a1.24 1.24 0 0 0-.729-1.372 21.6 21.6 0 0 1-3.951-2.15 1.26 1.26 0 0 0-.714-.221c-.25 0-.5.074-.72.22-.445.297-.905.574-1.372.84L4.79 2.457a21 21 0 0 0 1.642-.983" />
</svg>
